black-bloc.svg

<svg height="360" viewBox="0 0 265 270" width="265pt" xmlns="http://www.w3.org/2000/svg"><path d="m86.74 29.76c30.5-13.62 65.31-14.46 97.36-7.19 16.31 3.89 31.71 12 43.83 23.6 24.12 22.32 35.43 56.75 31.41 89.01-.39 1.44-.52 2.94-.75 4.41-34.32 5.19-69.3 3.66-103.68-.22-33.43-3.98-66.48-10.94-98.83-20.2-12.82-4.38-25.96-8.06-38.04-14.31l-.5-.64c.02-1.63 2.69-3.37.63-4.71.14-.55.42-1.63.55-2.18 14.25-29.27 37.89-54.5 68.02-67.57m-10.57 41.44c-11 3.11-18.09 16.44-13.6 27.15 2.3 6.18 9.65 10.1 16.02 8.09 12.4-2.94 19.63-19.51 12.16-30.19-3.15-4.68-9.28-6.23-14.58-5.05m77.32 13.35c-9.43 2.36-14.88 13.06-13.79 22.25.65 6.74 5.15 13.59 12.11 14.97 7.73 1.68 15.17-3.99 18.15-10.83 2.32-5.27 2.75-11.37.66-16.79-2.17-6.89-10.05-11.77-17.13-9.6z" fill="#fcc314"/><path d="m2.73 148.77c.32 11.6 5.34 22.21 9.96 32.62 7.83 15.89 16.85 31.17 25.77 46.46-8.21-3.44-16.35-7.33-23.3-12.96-6.02-4.57-11.26-10.81-12.85-18.34-1.99-15.79-1.68-32.05.42-47.78z" fill="#fcc314"/><path d="m228.33 198.38c9.43-10.29 16.08-22.81 25.66-32.97.06 2.88-.14 5.77.11 8.64 1.58 7.6 5.52 15.15 3.51 23.08-2.4 10.6-11.65 17.62-20.36 23.1-16.01 9.29-34.08 14.35-52.15 17.87-15.09 2.85-30.21 4.1-45.56 4.87 17.34-7.34 35.51-12.63 53.15-19.23 13.85-5.14 26.06-14.18 35.64-25.36z" fill="#fcc314"/><g fill="#2b2b2b"><path d="m76.17 71.2c5.3-1.18 11.43.37 14.58 5.05 7.47 10.68.24 27.25-12.16 30.19-6.37 2.01-13.72-1.91-16.02-8.09-4.49-10.71 2.6-24.04 13.6-27.15z"/><path d="m153.49 84.55c7.08-2.17 14.96 2.71 17.13 9.6 2.09 5.42 1.66 11.52-.66 16.79-2.98 6.84-10.42 12.51-18.15 10.83-6.96-1.38-11.46-8.23-12.11-14.97-1.09-9.19 4.36-19.89 13.79-22.25z"/><path d="m17.46 99.49c.05-1.01.47-1.73 1.26-2.16-.13.55-.41 1.63-.55 2.18 2.06 1.34-.61 3.08-.63 4.71l.5.64c12.08 6.25 25.22 9.93 38.04 14.31 32.35 9.26 65.4 16.22 98.83 20.2 34.38 3.88 69.36 5.41 103.68.22.23-1.47.36-2.97.75-4.41 1.88 1.17 4.07 2.01 5.63 3.63-.97 4.11-1.23 8.45-3.16 12.27-20.3 16.63-32.81 40.84-53.36 57.23-3.84 3.48-8.45 5.97-13.26 7.83-19.77 7.47-39.5 15.03-59.28 22.46-12.41 4.68-24.98 8.95-37.17 14.16-6.81 2.55-13.03 6.36-19.57 9.49-11.77-7.03-21.56-17.09-28.79-28.7-9.26-13.97-17.59-28.52-25.84-43.1-5.67-11.47-10.76-23.25-14.58-35.47-2.4-9.39-5.55-18.6-7.52-28.08.33-3.58.28-7.19.68-10.75 1.83-5.66 3.97-11.21 6.55-16.56 2.47-.73 5.23-.21 7.79-.1m61 45.01c-13.09 3.54-22.73 14.94-26.86 27.49-3.9 10.98-3.89 23.46.1 34.31 3.81 9.54 11.72 18.15 22.14 20.07 11.67 2.48 23.48-3.81 30.55-12.88 12.81-16.08 15.13-40.89 2.96-57.95-6.45-8.93-18.07-13.74-28.89-11.04z"/><path d="m2.15 142.87c4.97 22.33 14.03 43.58 25.83 63.13 11.17 18.06 20.21 38.25 37.07 51.92 4.48 4.14 9.77 7.2 14.91 10.42 3.7-4.36 9-6.85 14.04-9.34 4.68-2.45 9.62-4.32 14.44-6.44 23.93-9.46 48.13-18.23 72.42-26.72 8.13-3.01 16.59-5.36 24.09-9.81 18.88-11.17 31.01-30.05 43.82-47.25 2.98-3.38 5.42-7.56 9.57-9.66-.72 2.56-2.6 4.4-4.35 6.29-9.58 10.16-16.23 22.68-25.66 32.97-9.58 11.18-21.79 20.22-35.64 25.36-17.64 6.6-35.81 11.89-53.15 19.23-16.7 5.83-33.24 12.4-49.05 20.37-3.41 1.99-7.32 3.47-9.84 6.66h-.6l-.86-.81c-10.44-4.51-19.26-12.15-26.48-20.84-5.55-6.26-9.62-13.59-14.25-20.5-8.92-15.29-17.94-30.57-25.77-46.46-4.62-10.41-9.64-21.02-9.96-32.62-.07-1.98-.49-3.93-.58-5.9z"/><path d="m68.09 155.15c5.29-4.3 12.25-7.5 19.17-6.36-12.17 15.86-24.99 31.7-32.77 50.29-3.51-15.61 1.45-33.26 13.6-43.93z"/><path d="m90.54 149.31c6.95 1.68 12.54 7.09 15.71 13.39 5.09 9.53 5.34 21.01 2.77 31.33-2.06 6.96-5.23 14.01-10.69 18.93-6.43-20.58-6.99-42.29-7.79-63.65z"/><path d="m71.02 180.96c4.59-6.33 8.63-13.45 14.05-18.94.17 8.26.94 16.48 1.67 24.7-5.22-1.7-10.49-3.27-15.73-4.9z"/><path d="m67.24 187.1c6.91 1.72 13.68 4.15 20.53 6.18 1.25 8.1 3 16.12 5.73 23.87-5.72 4.68-13.89 6.21-20.95 4.11-6.85-2.25-12.39-7.71-15.25-14.26 3.03-6.78 6.07-13.56 9.94-19.9z"/></g><path d="m2.15 142.87c-.61-5.27-.31-10.7.29-15.97 1.97 9.48 5.12 18.69 7.52 28.08 3.82 12.22 8.91 24 14.58 35.47 8.25 14.58 16.58 29.13 25.84 43.1 7.23 11.61 17.02 21.67 28.79 28.7 6.54-3.13 12.76-6.94 19.57-9.49 12.19-5.21 24.76-9.48 37.17-14.16 19.78-7.43 39.51-14.99 59.28-22.46 4.81-1.86 9.42-4.35 13.26-7.83 20.55-16.39 33.06-40.6 53.36-57.23-1.23 2.64-2.01 5.52-3.47 8.04-4.15 2.1-6.59 6.28-9.57 9.66-12.81 17.2-24.94 36.08-43.82 47.25-7.5 4.45-15.96 6.8-24.09 9.81-24.29 8.49-48.49 17.26-72.42 26.72-4.82 2.12-9.76 3.99-14.44 6.44-5.04 2.49-10.34 4.98-14.04 9.34-5.14-3.22-10.43-6.28-14.91-10.42-16.86-13.67-25.9-33.86-37.07-51.92-11.8-19.55-20.86-40.8-25.83-63.13z" fill="#fff"/><path d="m78.46 144.5c10.82-2.7 22.44 2.11 28.89 11.04 12.17 17.06 9.85 41.87-2.96 57.95-7.07 9.07-18.88 15.36-30.55 12.88-10.42-1.92-18.33-10.53-22.14-20.07-3.99-10.85-4-23.33-.1-34.31 4.13-12.55 13.77-23.95 26.86-27.49m-10.37 10.65c-12.15 10.67-17.11 28.32-13.6 43.93 7.78-18.59 20.6-34.43 32.77-50.29-6.92-1.14-13.88 2.06-19.17 6.36m22.45-5.84c.8 21.36 1.36 43.07 7.79 63.65 5.46-4.92 8.63-11.97 10.69-18.93 2.57-10.32 2.32-21.8-2.77-31.33-3.17-6.3-8.76-11.71-15.71-13.39m-19.52 31.65-.01.86c5.24 1.63 10.51 3.2 15.73 4.9-.73-8.22-1.5-16.44-1.67-24.7-5.42 5.49-9.46 12.61-14.05 18.94m-3.78 6.14c-3.87 6.34-6.91 13.12-9.94 19.9 2.86 6.55 8.4 12.01 15.25 14.26 7.06 2.1 15.23.57 20.95-4.11-2.73-7.75-4.48-15.77-5.73-23.87-6.85-2.03-13.62-4.46-20.53-6.18z" fill="#fff"/></svg>

<svg width="265pt" height="360" viewBox="0 0 265 270" version="1.1" xmlns="http://www.w3.org/2000/svg"><g id="#fcc314ff"><path fill="#fcc314" opacity="1" d="M 86.74 29.76 C 117.24 16.14 152.05 15.30 184.10 22.57 C 200.41 26.46 215.81 34.57 227.93 46.17 C 252.05 68.49 263.36 102.92 259.34 135.18 C 258.95 136.62 258.82 138.12 258.59 139.59 C 224.27 144.78 189.29 143.25 154.91 139.37 C 121.48 135.39 88.43 128.43 56.08 119.17 C 43.26 114.79 30.12 111.11 18.04 104.86 L 17.54 104.22 C 17.56 102.59 20.23 100.85 18.17 99.51 C 18.31 98.96 18.59 97.88 18.72 97.33 C 32.97 68.06 56.61 42.83 86.74 29.76 M 76.17 71.20 C 65.17 74.31 58.08 87.64 62.57 98.35 C 64.87 104.53 72.22 108.45 78.59 106.44 C 90.99 103.50 98.22 86.93 90.75 76.25 C 87.60 71.57 81.47 70.02 76.17 71.20 M 153.49 84.55 C 144.06 86.91 138.61 97.61 139.70 106.80 C 140.35 113.54 144.85 120.39 151.81 121.77 C 159.54 123.45 166.98 117.78 169.96 110.94 C 172.28 105.67 172.71 99.57 170.62 94.15 C 168.45 87.26 160.57 82.38 153.49 84.55 Z"/><path fill="#fcc314" opacity="1" d="M 2.73 148.77 C 3.05 160.37 8.07 170.98 12.69 181.39 C 20.52 197.28 29.54 212.56 38.46 227.85 C 30.25 224.41 22.11 220.52 15.16 214.89 C 9.14 210.32 3.90 204.08 2.31 196.55 C 0.32 180.76 0.63 164.50 2.73 148.77 Z"/><path fill="#fcc314" opacity="1" d="M 228.33 198.38 C 237.76 188.09 244.41 175.57 253.99 165.41 C 254.05 168.29 253.85 171.18 254.10 174.05 C 255.68 181.65 259.62 189.20 257.61 197.13 C 255.21 207.73 245.96 214.75 237.25 220.23 C 221.24 229.52 203.17 234.58 185.10 238.10 C 170.01 240.95 154.89 242.20 139.54 242.97 C 156.88 235.63 175.05 230.34 192.69 223.74 C 206.54 218.60 218.75 209.56 228.33 198.38 Z"/></g><g id="#2b2b2bff"><path fill="#2b2b2b" opacity="1" d="M 76.17 71.20 C 81.47 70.02 87.60 71.57 90.75 76.25 C 98.22 86.93 90.99 103.50 78.59 106.44 C 72.22 108.45 64.87 104.53 62.57 98.35 C 58.08 87.64 65.17 74.31 76.17 71.20 Z"/><path fill="#2b2b2b" opacity="1" d="M 153.49 84.55 C 160.57 82.38 168.45 87.26 170.62 94.15 C 172.71 99.57 172.28 105.67 169.96 110.94 C 166.98 117.78 159.54 123.45 151.81 121.77 C 144.85 120.39 140.35 113.54 139.70 106.80 C 138.61 97.61 144.06 86.91 153.49 84.55 Z"/><path fill="#2b2b2b" opacity="1" d="M 17.46 99.49 C 17.51 98.48 17.93 97.76 18.72 97.33 C 18.59 97.88 18.31 98.96 18.17 99.51 C 20.23 100.85 17.56 102.59 17.54 104.22 L 18.04 104.86 C 30.12 111.11 43.26 114.79 56.08 119.17 C 88.43 128.43 121.48 135.39 154.91 139.37 C 189.29 143.25 224.27 144.78 258.59 139.59 C 258.82 138.12 258.95 136.62 259.34 135.18 C 261.22 136.35 263.41 137.19 264.97 138.81 C 264.00 142.92 263.74 147.26 261.81 151.08 C 241.51 167.71 229.00 191.92 208.45 208.31 C 204.61 211.79 200.00 214.28 195.19 216.14 C 175.42 223.61 155.69 231.17 135.91 238.60 C 123.50 243.28 110.93 247.55 98.74 252.76 C 91.93 255.31 85.71 259.12 79.17 262.25 C 67.40 255.22 57.61 245.16 50.38 233.55 C 41.12 219.58 32.79 205.03 24.54 190.45 C 18.87 178.98 13.78 167.20 9.96 154.98 C 7.56 145.59 4.41 136.38 2.44 126.90 C 2.77 123.32 2.72 119.71 3.12 116.15 C 4.95 110.49 7.09 104.94 9.67 99.59 C 12.14 98.86 14.90 99.38 17.46 99.49 M 78.46 144.50 C 65.37 148.04 55.73 159.44 51.60 171.99 C 47.70 182.97 47.71 195.45 51.70 206.30 C 55.51 215.84 63.42 224.45 73.84 226.37 C 85.51 228.85 97.32 222.56 104.39 213.49 C 117.20 197.41 119.52 172.60 107.35 155.54 C 100.90 146.61 89.28 141.80 78.46 144.50 Z"/><path fill="#2b2b2b" opacity="1" d="M 2.15 142.87 C 7.12 165.20 16.18 186.45 27.98 206.00 C 39.15 224.06 48.19 244.25 65.05 257.92 C 69.53 262.06 74.82 265.12 79.96 268.34 C 83.66 263.98 88.96 261.49 94.00 259.00 C 98.68 256.55 103.62 254.68 108.44 252.56 C 132.37 243.10 156.57 234.33 180.86 225.84 C 188.99 222.83 197.45 220.48 204.95 216.03 C 223.83 204.86 235.96 185.98 248.77 168.78 C 251.75 165.40 254.19 161.22 258.34 159.12 C 257.62 161.68 255.74 163.52 253.99 165.41 C 244.41 175.57 237.76 188.09 228.33 198.38 C 218.75 209.56 206.54 218.60 192.69 223.74 C 175.05 230.34 156.88 235.63 139.54 242.97 C 122.84 248.80 106.30 255.37 90.49 263.34 C 87.08 265.33 83.17 266.81 80.65 270.00 L 80.05 270.00 L 79.19 269.19 C 68.75 264.68 59.93 257.04 52.71 248.35 C 47.16 242.09 43.09 234.76 38.46 227.85 C 29.54 212.56 20.52 197.28 12.69 181.39 C 8.07 170.98 3.05 160.37 2.73 148.77 C 2.66 146.79 2.24 144.84 2.15 142.87 Z"/><path fill="#2b2b2b" opacity="1" d="M 68.09 155.15 C 73.38 150.85 80.34 147.65 87.26 148.79 C 75.09 164.65 62.27 180.49 54.49 199.08 C 50.98 183.47 55.94 165.82 68.09 155.15 Z"/><path fill="#2b2b2b" opacity="1" d="M 90.54 149.31 C 97.49 150.99 103.08 156.40 106.25 162.70 C 111.34 172.23 111.59 183.71 109.02 194.03 C 106.96 200.99 103.79 208.04 98.33 212.96 C 91.90 192.38 91.34 170.67 90.54 149.31 Z"/><path fill="#2b2b2b" opacity="1" d="M 71.02 180.96 C 75.61 174.63 79.65 167.51 85.07 162.02 C 85.24 170.28 86.01 178.50 86.74 186.72 C 81.52 185.02 76.25 183.45 71.01 181.82 L 71.02 180.96 Z"/><path fill="#2b2b2b" opacity="1" d="M 67.24 187.10 C 74.15 188.82 80.92 191.25 87.77 193.28 C 89.02 201.38 90.77 209.40 93.50 217.15 C 87.78 221.83 79.61 223.36 72.55 221.26 C 65.70 219.01 60.16 213.55 57.30 207.00 C 60.33 200.22 63.37 193.44 67.24 187.10 Z"/></g><g id="#ffffffff"><path fill="#fff" opacity="1" d="M 2.15 142.87 C 1.54 137.60 1.84 132.17 2.44 126.90 C 4.41 136.38 7.56 145.59 9.96 154.98 C 13.78 167.20 18.87 178.98 24.54 190.45 C 32.79 205.03 41.12 219.58 50.38 233.55 C 57.61 245.16 67.40 255.22 79.17 262.25 C 85.71 259.12 91.93 255.31 98.74 252.76 C 110.93 247.55 123.50 243.28 135.91 238.60 C 155.69 231.17 175.42 223.61 195.19 216.14 C 200.00 214.28 204.61 211.79 208.45 208.31 C 229.00 191.92 241.51 167.71 261.81 151.08 C 260.58 153.72 259.80 156.60 258.34 159.12 C 254.19 161.22 251.75 165.40 248.77 168.78 C 235.96 185.98 223.83 204.86 204.95 216.03 C 197.45 220.48 188.99 222.83 180.86 225.84 C 156.57 234.33 132.37 243.10 108.44 252.56 C 103.62 254.68 98.68 256.55 94.00 259.00 C 88.96 261.49 83.66 263.98 79.96 268.34 C 74.82 265.12 69.53 262.06 65.05 257.92 C 48.19 244.25 39.15 224.06 27.98 206.00 C 16.18 186.45 7.12 165.20 2.15 142.87 Z"/><path fill="#fff" opacity="1" d="M 78.46 144.50 C 89.28 141.80 100.90 146.61 107.35 155.54 C 119.52 172.60 117.20 197.41 104.39 213.49 C 97.32 222.56 85.51 228.85 73.84 226.37 C 63.42 224.45 55.51 215.84 51.70 206.30 C 47.71 195.45 47.70 182.97 51.60 171.99 C 55.73 159.44 65.37 148.04 78.46 144.50 M 68.09 155.15 C 55.94 165.82 50.98 183.47 54.49 199.08 C 62.27 180.49 75.09 164.65 87.26 148.79 C 80.34 147.65 73.38 150.85 68.09 155.15 M 90.54 149.31 C 91.34 170.67 91.90 192.38 98.33 212.96 C 103.79 208.04 106.96 200.99 109.02 194.03 C 111.59 183.71 111.34 172.23 106.25 162.70 C 103.08 156.40 97.49 150.99 90.54 149.31 M 71.02 180.96 L 71.01 181.82 C 76.25 183.45 81.52 185.02 86.74 186.72 C 86.01 178.50 85.24 170.28 85.07 162.02 C 79.65 167.51 75.61 174.63 71.02 180.96 M 67.24 187.10 C 63.37 193.44 60.33 200.22 57.30 207.00 C 60.16 213.55 65.70 219.01 72.55 221.26 C 79.61 223.36 87.78 221.83 93.50 217.15 C 90.77 209.40 89.02 201.38 87.77 193.28 C 80.92 191.25 74.15 188.82 67.24 187.10 Z"/></g></svg>
